public/logos/RQ.svg

<?xml version="1.0" encoding="UTF-8"?>
<svg xmlns="http://www.w3.org/2000/svg" xmlns:xlink="http://www.w3.org/1999/xlink" width="176pt" height="41.78pt" viewBox="0 0 176 41.78" version="1.1">
<defs>
<clipPath id="clip1">
  <path d="M 0 0 L 42 0 L 42 41.78125 L 0 41.78125 Z M 0 0 "/>
</clipPath>
</defs>
<g id="surface1">
<path style=" stroke:none;fill-rule:nonzero;fill:rgb(16.506958%,30.755615%,66.073608%);fill-opacity:1;" d="M 64.300781 29.972656 L 62.117188 22.976562 L 60.355469 24.882812 L 59.457031 29.972656 L 52.097656 29.972656 L 55.582031 10.21875 L 62.941406 10.21875 L 61.625 17.6875 L 67.78125 10.21875 L 76.515625 10.21875 L 68.351562 18.585938 L 72.945312 29.972656 L 64.300781 29.972656 "/>
<path style=" stroke:none;fill-rule:nonzero;fill:rgb(16.506958%,30.755615%,66.073608%);fill-opacity:1;" d="M 83.414062 23.929688 C 83.324219 23.910156 83.214844 23.90625 83.082031 23.914062 C 82.949219 23.925781 82.816406 23.929688 82.6875 23.929688 C 82.480469 23.929688 82.253906 23.949219 82.007812 23.984375 C 81.757812 24.023438 81.519531 24.09375 81.296875 24.195312 C 81.074219 24.296875 80.875 24.441406 80.703125 24.628906 C 80.53125 24.816406 80.417969 25.058594 80.363281 25.355469 C 80.300781 25.730469 80.359375 26.027344 80.542969 26.253906 C 80.726562 26.476562 80.976562 26.589844 81.296875 26.589844 C 81.835938 26.589844 82.285156 26.410156 82.648438 26.054688 C 82.957031 25.777344 83.160156 25.386719 83.246094 24.882812 Z M 90.171875 29.890625 C 89.667969 29.984375 89.136719 30.066406 88.574219 30.140625 C 88.011719 30.21875 87.441406 30.253906 86.863281 30.253906 C 85.796875 30.253906 84.96875 30.089844 84.371094 29.765625 C 83.777344 29.4375 83.40625 28.996094 83.265625 28.433594 C 82.492188 29.105469 81.703125 29.609375 80.898438 29.945312 C 80.09375 30.28125 79.085938 30.449219 77.871094 30.449219 C 77.179688 30.449219 76.5625 30.339844 76.015625 30.113281 C 75.464844 29.890625 75.011719 29.578125 74.65625 29.175781 C 74.296875 28.777344 74.046875 28.285156 73.90625 27.707031 C 73.765625 27.128906 73.757812 26.484375 73.882812 25.777344 C 74.074219 24.675781 74.488281 23.792969 75.117188 23.132812 C 75.746094 22.46875 76.488281 21.964844 77.34375 21.621094 C 78.199219 21.277344 79.109375 21.046875 80.082031 20.933594 C 81.050781 20.824219 81.984375 20.769531 82.882812 20.769531 C 83.214844 20.769531 83.480469 20.738281 83.679688 20.683594 C 83.875 20.628906 83.996094 20.46875 84.042969 20.207031 L 84.074219 20.039062 C 84.101562 19.871094 84.09375 19.703125 84.050781 19.535156 C 84.003906 19.367188 83.886719 19.21875 83.695312 19.089844 C 83.503906 18.957031 83.222656 18.851562 82.855469 18.765625 C 82.488281 18.683594 82.007812 18.640625 81.410156 18.640625 C 79.859375 18.640625 78.34375 18.976562 76.867188 19.648438 L 76.703125 15.171875 C 77.941406 14.816406 79.132812 14.574219 80.273438 14.441406 C 81.417969 14.3125 82.5 14.246094 83.527344 14.246094 C 84.515625 14.246094 85.480469 14.328125 86.421875 14.484375 C 87.363281 14.644531 88.183594 14.933594 88.875 15.351562 C 89.566406 15.773438 90.082031 16.355469 90.425781 17.101562 C 90.769531 17.847656 90.839844 18.800781 90.636719 19.957031 L 89.695312 25.300781 C 89.65625 25.507812 89.648438 25.71875 89.664062 25.945312 C 89.679688 26.167969 89.839844 26.28125 90.136719 26.28125 C 90.324219 26.28125 90.5 26.234375 90.664062 26.140625 L 90.171875 29.890625 "/>
<path style=" stroke:none;fill-rule:nonzero;fill:rgb(16.506958%,30.755615%,66.073608%);fill-opacity:1;" d="M 110.585938 29.972656 L 112.125 21.242188 C 112.234375 20.628906 112.191406 20.207031 111.996094 19.984375 C 111.804688 19.761719 111.519531 19.648438 111.144531 19.648438 C 110.941406 19.648438 110.746094 19.695312 110.5625 19.789062 C 110.378906 19.882812 110.21875 19.992188 110.085938 20.125 C 109.835938 20.367188 109.671875 20.582031 109.59375 20.769531 C 109.511719 20.953125 109.445312 21.207031 109.390625 21.523438 L 107.898438 29.972656 L 101.070312 29.972656 L 102.609375 21.242188 C 102.71875 20.628906 102.679688 20.207031 102.484375 19.984375 C 102.296875 19.761719 102.015625 19.648438 101.644531 19.648438 C 101.441406 19.648438 101.25 19.695312 101.066406 19.789062 C 100.886719 19.882812 100.726562 19.992188 100.59375 20.125 C 100.347656 20.367188 100.183594 20.582031 100.105469 20.769531 C 100.023438 20.953125 99.957031 21.207031 99.902344 21.523438 L 98.410156 29.972656 L 91.527344 29.972656 L 94.21875 14.722656 L 100.457031 14.722656 L 100.089844 16.820312 C 100.84375 16.039062 101.671875 15.414062 102.570312 14.945312 C 103.476562 14.480469 104.488281 14.246094 105.605469 14.246094 C 106.820312 14.246094 107.75 14.476562 108.394531 14.933594 C 109.042969 15.390625 109.476562 15.992188 109.699219 16.738281 C 110.449219 15.992188 111.265625 15.390625 112.144531 14.933594 C 113.027344 14.476562 114.019531 14.246094 115.121094 14.246094 C 116.035156 14.246094 116.789062 14.378906 117.390625 14.640625 C 117.984375 14.898438 118.445312 15.265625 118.765625 15.730469 C 119.082031 16.195312 119.28125 16.742188 119.355469 17.367188 C 119.433594 17.992188 119.40625 18.667969 119.277344 19.394531 L 117.414062 29.972656 L 110.585938 29.972656 "/>
<path style=" stroke:none;fill-rule:nonzero;fill:rgb(16.506958%,30.755615%,66.073608%);fill-opacity:1;" d="M 140.476562 18.527344 C 140.457031 18.210938 140.4375 17.863281 140.410156 17.480469 C 140.382812 17.097656 140.359375 16.726562 140.339844 16.375 C 140.316406 16.019531 140.300781 15.6875 140.289062 15.378906 C 140.277344 15.074219 140.277344 14.835938 140.289062 14.667969 L 140.234375 14.667969 C 140.164062 14.851562 140.074219 15.097656 139.96875 15.394531 C 139.855469 15.691406 139.730469 16.015625 139.585938 16.359375 C 139.441406 16.707031 139.289062 17.0625 139.132812 17.4375 C 138.972656 17.8125 138.824219 18.164062 138.691406 18.5 L 137.078125 22.25 L 140.742188 22.25 Z M 141.3125 29.972656 L 141.113281 27.148438 L 134.980469 27.148438 L 133.757812 29.972656 L 126.648438 29.972656 L 136.148438 10.21875 L 146.867188 10.21875 L 149.398438 29.972656 L 141.3125 29.972656 "/>
<path style=" stroke:none;fill-rule:nonzero;fill:rgb(16.506958%,30.755615%,66.073608%);fill-opacity:1;" d="M 150.96875 29.972656 L 153.65625 14.722656 L 160.539062 14.722656 L 157.851562 29.972656 Z M 161.230469 11.449219 C 161.078125 12.308594 160.636719 12.96875 159.898438 13.433594 C 159.164062 13.902344 158.273438 14.136719 157.230469 14.136719 C 156.167969 14.136719 155.347656 13.898438 154.769531 13.421875 C 154.1875 12.945312 153.972656 12.289062 154.121094 11.449219 C 154.183594 11.09375 154.316406 10.753906 154.523438 10.425781 C 154.730469 10.101562 155.003906 9.8125 155.335938 9.558594 C 155.671875 9.308594 156.074219 9.109375 156.546875 8.957031 C 157.023438 8.808594 157.566406 8.734375 158.183594 8.734375 C 159.300781 8.734375 160.125 8.980469 160.652344 9.476562 C 161.183594 9.96875 161.375 10.628906 161.230469 11.449219 "/>
<path style=" stroke:none;fill-rule:nonzero;fill:rgb(16.506958%,30.755615%,66.073608%);fill-opacity:1;" d="M 174.03125 20.433594 C 173.757812 20.171875 173.4375 19.988281 173.0625 19.886719 C 172.6875 19.785156 172.34375 19.730469 172.027344 19.730469 C 171.503906 19.730469 171.082031 19.800781 170.757812 19.941406 C 170.433594 20.082031 170.1875 20.226562 170.011719 20.375 C 169.769531 20.582031 169.589844 20.804688 169.472656 21.046875 C 169.355469 21.289062 169.246094 21.691406 169.144531 22.25 L 167.785156 29.972656 L 160.902344 29.972656 L 162.875 18.78125 C 162.929688 18.464844 162.988281 18.105469 163.050781 17.703125 C 163.113281 17.300781 163.167969 16.910156 163.21875 16.527344 C 163.265625 16.144531 163.308594 15.792969 163.347656 15.464844 C 163.386719 15.136719 163.421875 14.890625 163.449219 14.722656 L 169.773438 14.722656 L 169.398438 16.847656 C 169.707031 16.550781 170.027344 16.246094 170.367188 15.941406 C 170.703125 15.632812 171.066406 15.351562 171.457031 15.101562 C 171.847656 14.847656 172.28125 14.644531 172.757812 14.484375 C 173.230469 14.328125 173.75 14.246094 174.308594 14.246094 C 174.589844 14.246094 174.878906 14.265625 175.179688 14.304688 C 175.480469 14.339844 175.753906 14.40625 176 14.5 L 174.03125 20.433594 "/>
<g clip-path="url(#clip1)" clip-rule="nonzero">
<path style=" stroke:none;fill-rule:nonzero;fill:rgb(96.22345%,49.951172%,11.538696%);fill-opacity:1;" d="M 41.78125 20.890625 C 41.78125 32.425781 32.425781 41.78125 20.890625 41.78125 C 9.351562 41.78125 0 32.425781 0 20.890625 C 0 9.351562 9.351562 0 20.890625 0 C 32.425781 0 41.78125 9.351562 41.78125 20.890625 "/>
</g>
<path style=" stroke:none;fill-rule:nonzero;fill:rgb(16.506958%,30.755615%,66.073608%);fill-opacity:1;" d="M 7.9375 35.179688 C 7.9375 35.179688 3.625 24.691406 12.152344 18.148438 C 10.621094 17.882812 10.09375 16.445312 8.992188 15.535156 C 10.234375 15.628906 12.96875 13.378906 14.738281 15.4375 C 16.175781 12.371094 22.789062 4.324219 34.578125 6.621094 C 34.578125 6.621094 22.40625 8.058594 19.339844 16.398438 C 18.859375 17.355469 26.285156 20.757812 30.074219 21.957031 C 26.878906 21.476562 25.855469 20.996094 25.664062 21.476562 C 25.472656 21.957031 28.828125 23.777344 28.828125 23.777344 C 28.828125 23.777344 24.21875 21.964844 23.542969 21.910156 C 17.792969 21.429688 15.792969 19.558594 15.21875 20.132812 C 14.644531 20.707031 8.222656 24.253906 7.9375 35.179688 "/>
<path style=" stroke:none;fill-rule:nonzero;fill:rgb(16.506958%,30.755615%,66.073608%);fill-opacity:1;" d="M 7.9375 35.179688 L 33.953125 35.179688 L 33.953125 35.5625 L 7.9375 35.5625 L 7.9375 35.179688 "/>
<path style=" stroke:none;fill-rule:nonzero;fill:rgb(16.506958%,30.755615%,66.073608%);fill-opacity:1;" d="M 28.347656 23.871094 L 40.277344 23.871094 L 40.277344 23.441406 L 28.347656 23.441406 L 28.347656 23.871094 "/>
<path style=" stroke:none;fill-rule:nonzero;fill:rgb(16.506958%,30.755615%,66.073608%);fill-opacity:1;" d="M 40.613281 22.003906 L 30.167969 22.003906 L 30.167969 22.433594 L 40.613281 22.433594 L 40.613281 22.003906 "/>
</g>
</svg>

<svg xmlns="http://www.w3.org/2000/svg" width="176pt" height="55.707" viewBox="0 0 176 41.78"><defs><clipPath id="a"><path d="M0 0h42v41.781H0Zm0 0"/></clipPath></defs><path d="m64.3 29.973-2.183-6.996-1.762 1.906-.898 5.09h-7.36l3.485-19.754h7.36l-1.317 7.469 6.156-7.47h8.735l-8.164 8.368 4.593 11.387zM83.414 23.93a1.3 1.3 0 0 0-.332-.016 5 5 0 0 1-.394.016q-.311.002-.68.054-.376.06-.711.211a1.8 1.8 0 0 0-.594.434q-.258.281-.34.726-.095.56.18.899.275.335.754.336.808-.001 1.351-.535c.309-.278.512-.668.598-1.172Zm6.758 5.96q-.755.14-1.598.25c-.562.079-1.133.114-1.71.114-1.067 0-1.895-.164-2.493-.488-.594-.328-.965-.77-1.105-1.332q-1.16 1.007-2.368 1.511-1.205.504-3.027.504-1.036.002-1.855-.336a3.56 3.56 0 0 1-1.36-.937q-.54-.6-.75-1.469-.21-.868-.023-1.93c.191-1.101.605-1.984 1.234-2.644a6.2 6.2 0 0 1 2.227-1.512 10.6 10.6 0 0 1 2.738-.687 25 25 0 0 1 2.8-.164c.333 0 .598-.032.798-.086q.292-.083.363-.477l.031-.168a1.2 1.2 0 0 0-.023-.504q-.07-.252-.356-.445c-.191-.133-.472-.238-.84-.324q-.55-.124-1.445-.125-2.326 0-4.543 1.007l-.164-4.476a22.3 22.3 0 0 1 3.57-.73 29 29 0 0 1 3.254-.196c.989 0 1.953.082 2.895.238.941.16 1.762.45 2.453.868a3.92 3.92 0 0 1 1.55 1.75q.517 1.12.212 2.855l-.942 5.344c-.039.207-.047.418-.03.644q.025.335.472.336.28 0 .527-.14zM110.586 29.973l1.539-8.73q.164-.923-.129-1.259-.287-.334-.851-.336-.307 0-.582.141a1.9 1.9 0 0 0-.477.336q-.375.363-.492.645a3.3 3.3 0 0 0-.203.753l-1.493 8.45h-6.828l1.54-8.73c.109-.614.07-1.036-.126-1.259q-.281-.334-.84-.336a1.25 1.25 0 0 0-.578.141 1.9 1.9 0 0 0-.472.336q-.37.363-.489.645a3.3 3.3 0 0 0-.203.753l-1.492 8.45h-6.883l2.692-15.25h6.238l-.367 2.097a9.6 9.6 0 0 1 2.48-1.875q1.36-.698 3.035-.699 1.822 0 2.79.688a3.3 3.3 0 0 1 1.304 1.804 10 10 0 0 1 2.446-1.804q1.324-.687 2.976-.688 1.369.001 2.27.395c.593.257 1.054.625 1.375 1.09q.476.697.59 1.636.116.938-.079 2.028l-1.863 10.578zM140.477 18.527q-.028-.473-.067-1.047-.04-.575-.07-1.105-.035-.532-.05-.996a7 7 0 0 1 0-.711h-.056c-.07.184-.16.43-.265.727-.114.296-.239.62-.383.964-.145.348-.297.703-.453 1.078q-.241.56-.442 1.063l-1.613 3.75h3.664Zm.835 11.446-.199-2.825h-6.133l-1.222 2.825h-7.11l9.5-19.754h10.72l2.53 19.754zM150.969 29.973l2.687-15.25h6.883l-2.687 15.25Zm10.261-18.524c-.152.86-.593 1.52-1.332 1.985q-1.102.702-2.668.703-1.593 0-2.46-.715-.873-.714-.649-1.973.093-.532.402-1.023.312-.487.813-.867a4.1 4.1 0 0 1 1.21-.602c.477-.148 1.02-.223 1.638-.223q1.677-.001 2.468.743c.532.492.723 1.152.578 1.972M174.031 20.434a2.2 2.2 0 0 0-.969-.547 4 4 0 0 0-1.035-.157q-.783 0-1.27.211-.483.212-.745.434-.363.31-.54.672-.175.364-.327 1.203l-1.36 7.723h-6.883l1.973-11.192q.082-.474.176-1.078a53 53 0 0 0 .297-2.238q.06-.491.101-.742h6.324l-.375 2.125q.462-.448.97-.907.502-.463 1.089-.84c.39-.253.824-.456 1.3-.617a5 5 0 0 1 1.552-.238q.42 0 .87.059.452.053.821.195z" style="stroke:none;fill-rule:nonzero;fill:#2a4ea8;fill-opacity:1"/><g clip-path="url(#a)"><path d="M41.781 20.89c0 11.536-9.355 20.891-20.89 20.891C9.35 41.781 0 32.426 0 20.891 0 9.35 9.352 0 20.89 0c11.536 0 20.891 9.352 20.891 20.89" style="stroke:none;fill-rule:nonzero;fill:#f57f1d;fill-opacity:1"/></g><path d="M7.938 35.18S3.625 24.69 12.152 18.148c-1.53-.265-2.058-1.703-3.16-2.613 1.242.094 3.977-2.156 5.746-.098 1.438-3.066 8.051-11.113 19.84-8.816 0 0-12.172 1.438-15.238 9.777-.48.957 6.945 4.36 10.734 5.559-3.195-.48-4.219-.96-4.41-.48s3.164 2.3 3.164 2.3-4.61-1.812-5.285-1.867c-5.75-.48-7.75-2.351-8.324-1.777s-6.996 4.12-7.281 15.047M7.938 35.18h26.015v.383H7.937z" style="stroke:none;fill-rule:nonzero;fill:#2a4ea8;fill-opacity:1"/><path d="M28.348 23.871h11.93v-.43h-11.93zM40.613 22.004H30.168v.43h10.445z" style="stroke:none;fill-rule:nonzero;fill:#2a4ea8;fill-opacity:1"/></svg>
